svg/screenruler.svg

<?xml version="1.0" encoding="UTF-8"?>
<svg xmlns="http://www.w3.org/2000/svg" xmlns:xlink="http://www.w3.org/1999/xlink" width="320px" height="320px" viewBox="0 0 320 320" version="1.1">
<defs>
<linearGradient id="linear0" gradientUnits="userSpaceOnUse" x1="24.200001" y1="41.695" x2="23.797001" y2="6.305" gradientTransform="matrix(6.398305,0,0,8.479256,7.457627,-44.519091)">
<stop offset="0" style="stop-color:rgb(100%,79.215688%,21.568628%);stop-opacity:1;"/>
<stop offset="1" style="stop-color:rgb(100%,95.686275%,43.529412%);stop-opacity:1;"/>
</linearGradient>
</defs>
<g id="surface1">
<path style=" stroke:none;fill-rule:nonzero;fill:url(#linear0);" d="M 54.125 5.421875 L 267.910156 5.421875 C 293.683594 5.421875 314.578125 26.316406 314.578125 52.089844 L 314.578125 265.875 C 314.578125 291.648438 293.683594 312.542969 267.910156 312.542969 L 54.125 312.542969 C 28.351562 312.542969 7.457031 291.648438 7.457031 265.875 L 7.457031 52.089844 C 7.457031 26.316406 28.351562 5.421875 54.125 5.421875 Z M 54.125 5.421875 "/>
<path style="fill-rule:nonzero;fill:rgb(15.294118%,11.764706%,0%);fill-opacity:1;stroke-width:0.481475;stroke-linecap:round;stroke-linejoin:round;stroke:rgb(15.294118%,12.156863%,0%);stroke-opacity:1;stroke-miterlimit:4;" d="M 5.082422 6.122461 L 5.082422 33.161719 L 6.82207 33.161719 L 6.82207 6.122461 Z M 10.300781 6.122461 L 10.300781 19.642383 L 12.041016 19.642383 L 12.041016 6.122461 Z M 15.519727 6.122461 L 15.519727 19.642383 L 17.259375 19.642383 L 17.259375 6.122461 Z M 20.738086 6.122461 L 20.738086 19.642383 L 22.477734 19.642383 L 22.477734 6.122461 Z M 25.956445 6.122461 L 25.956445 19.642383 L 27.69668 19.642383 L 27.69668 6.122461 Z M 31.175391 6.122461 L 31.175391 26.399414 L 32.915039 26.399414 L 32.915039 6.122461 Z M 36.39375 6.122461 L 36.39375 19.642383 L 38.133984 19.642383 L 38.133984 6.122461 Z M 41.612109 6.122461 L 41.612109 19.642383 L 43.352344 19.642383 L 43.352344 6.122461 Z M 41.612109 6.122461 " transform="matrix(6.666667,0,0,6.666667,0,0)"/>
</g>
</svg>

<svg width="320px" height="320px" version="1.1" viewBox="0 0 320 320" xmlns="http://www.w3.org/2000/svg"><defs><linearGradient id="linear0" x1="24.2" x2="23.797" y1="41.695" y2="6.305" gradientTransform="matrix(6.3983 0 0 8.4793 7.4576 -44.519)" gradientUnits="userSpaceOnUse"><stop stop-color="#ffca37" offset="0"/><stop stop-color="#fff46f" offset="1"/></linearGradient></defs><g id="surface1"><path d="m54.125 5.4219h213.79c25.773 0 46.668 20.895 46.668 46.668v213.79c0 25.773-20.895 46.668-46.668 46.668h-213.79c-25.773 0-46.668-20.895-46.668-46.668v-213.79c0-25.773 20.895-46.668 46.668-46.668z" fill="url(#linear0)"/><path transform="scale(6.6667)" d="m5.0824 6.1225v27.039h1.7396v-27.039zm5.2184 0v13.52h1.7402v-13.52zm5.2189 0v13.52h1.7396v-13.52zm5.2184 0v13.52h1.7396v-13.52zm5.2184 0v13.52h1.7402v-13.52zm5.2189 0v20.277h1.7396v-20.277zm5.2184 0v13.52h1.7402v-13.52zm5.2184 0v13.52h1.7402v-13.52zm0 0" fill="#271e00" stroke="#271f00" stroke-linecap="round" stroke-linejoin="round" stroke-width=".48148"/></g></svg>
